X:1
T:The humors of Glynn
C:anon.
L:1/8
M:4/4
I:linebreak $
K:C
V:1 treble 
V:1
 .abcd | gdd edc z2 | BGG G2 A z2 | BGB BdB z2 |{d} cAA A2 d z2 | gdd edc z2 |$ BGG GAB z2 | %7
{d} cBc Adc z2 | BGG G2 :: B | de^f{a} gfg z2 | eaa a2 (g/a/) z2 | bge edB z2 |${c} BAA A2 d z2 | %14
 gdd edc z2 | BGG GAB z2 |{d} cBc Adc z2 | BGG G2 :| %18
